X:251
T: Die Jdin und der Schreiber (22a),
N: T0140
O: Luxemburg
S: Singendes Volk, Esch-Alzette 1937 posth.]
N: Godbringen, hhh Johann Trierweiler, 1900
R: Liebeslieder]
M: 2/4
L: 1/16
K: C
G2 | d2d2d2d2 | G4G2
G2 | A2B2c2A2 | A2G2G2
G2 | G2F2E2DD | C4
c2e2 | d2c2A2BB | c4z2

@@@ Tune index: 8305
